src/lib/packages/icons/src/assets/filled/salt.svg

<svg width="24" height="24" viewBox="0 0 24 24" fill="none" xmlns="http://www.w3.org/2000/svg">
<path d="M12.0001 3C9.23008 3 7.00008 5.23 7.00008 8V8.95001C7.00008 8.95001 7.00007 9.25 7.30007 9.25H16.7001C17.0001 9.25 17.0001 8.95001 17.0001 8.95001V8C17.0001 5.23 14.7701 3 12.0001 3ZM10.0201 6.25C9.61007 6.25 9.27007 5.91 9.27007 5.5C9.27007 5.09 9.60007 4.75 10.0201 4.75C10.4401 4.75 10.7701 5.09 10.7701 5.5C10.7701 5.91 10.4401 6.25 10.0201 6.25ZM12.0201 7.25C11.6101 7.25 11.2701 6.91 11.2701 6.5C11.2701 6.09 11.6001 5.75 12.0201 5.75C12.4401 5.75 12.7701 6.09 12.7701 6.5C12.7701 6.91 12.4401 7.25 12.0201 7.25ZM14.0201 6.25C13.6101 6.25 13.2701 5.91 13.2701 5.5C13.2701 5.09 13.6001 4.75 14.0201 4.75C14.4401 4.75 14.7701 5.09 14.7701 5.5C14.7701 5.91 14.4401 6.25 14.0201 6.25ZM16.8001 10.75H7.21007C7.05007 10.75 6.93009 10.87 6.91009 11.02L6.20009 18.82C6.09009 19.99 7.01008 21 8.19008 21H15.8101C16.9901 21 17.9101 19.99 17.8001 18.82L17.0901 11.02C17.0801 10.87 16.9501 10.75 16.7901 10.75H16.8001ZM10.7501 18C10.7501 18.41 10.4101 18.75 10.0001 18.75C9.59008 18.75 9.25008 18.41 9.25008 18V13C9.25008 12.59 9.59008 12.25 10.0001 12.25C10.4101 12.25 10.7501 12.59 10.7501 13V18ZM14.7501 18C14.7501 18.41 14.4101 18.75 14.0001 18.75C13.5901 18.75 13.2501 18.41 13.2501 18V13C13.2501 12.59 13.5901 12.25 14.0001 12.25C14.4101 12.25 14.7501 12.59 14.7501 13V18Z" fill="currentColor"/>
</svg>

<svg xmlns="http://www.w3.org/2000/svg" width="24" height="24" fill="none"><path fill="currentColor" d="M12 3C9.23 3 7 5.23 7 8v.95s0 .3.3.3h9.4c.3 0 .3-.3.3-.3V8c0-2.77-2.23-5-5-5Zm-1.98 3.25a.749.749 0 1 1 .75-.75c0 .41-.33.75-.75.75Zm2 1a.749.749 0 1 1 .75-.75c0 .41-.33.75-.75.75Zm2-1a.749.749 0 1 1 .75-.75c0 .41-.33.75-.75.75Zm2.78 4.5H7.21c-.16 0-.28.12-.3.27l-.71 7.8C6.09 19.99 7.01 21 8.19 21h7.62c1.18 0 2.1-1.01 1.99-2.18l-.71-7.8a.296.296 0 0 0-.3-.27h.01ZM10.75 18c0 .41-.34.75-.75.75s-.75-.34-.75-.75v-5c0-.41.34-.75.75-.75s.75.34.75.75v5Zm4 0c0 .41-.34.75-.75.75s-.75-.34-.75-.75v-5c0-.41.34-.75.75-.75s.75.34.75.75v5Z"/></svg>
